Catalina-light/apps/scalable/AdobeLightroom.svg

<?xml version="1.0" encoding="UTF-8" standalone="no"?>
<!-- Created with Inkscape (http://www.inkscape.org/) -->

<svg
   xmlns:dc="http://purl.org/dc/elements/1.1/"
   xmlns:cc="http://creativecommons.org/ns#"
   xmlns:rdf="http://www.w3.org/1999/02/22-rdf-syntax-ns#"
   xmlns:svg="http://www.w3.org/2000/svg"
   xmlns="http://www.w3.org/2000/svg"
   xmlns:xlink="http://www.w3.org/1999/xlink"
   xmlns:sodipodi="http://sodipodi.sourceforge.net/DTD/sodipodi-0.dtd"
   xmlns:inkscape="http://www.inkscape.org/namespaces/inkscape"
   version="1.1"
   id="svg2"
   width="25.6"
   height="25.6"
   viewBox="0 0 25.6 25.6"
   sodipodi:docname="AdobeLightroom.svg"
   inkscape:version="0.92.4 5da689c313, 2019-01-14">
  <metadata
     id="metadata8">
    <rdf:RDF>
      <cc:Work
         rdf:about="">
        <dc:format>image/svg+xml</dc:format>
        <dc:type
           rdf:resource="http://purl.org/dc/dcmitype/StillImage" />
        <dc:title></dc:title>
      </cc:Work>
    </rdf:RDF>
  </metadata>
  <defs
     id="defs6">
    <linearGradient
       inkscape:collect="always"
       id="linearGradient835">
      <stop
         style="stop-color:#303c50;stop-opacity:1"
         offset="0"
         id="stop831" />
      <stop
         style="stop-color:#1b232e;stop-opacity:1"
         offset="1"
         id="stop833" />
    </linearGradient>
    <linearGradient
       inkscape:collect="always"
       id="linearGradient825">
      <stop
         style="stop-color:#a1b2cf;stop-opacity:1"
         offset="0"
         id="stop821" />
      <stop
         style="stop-color:#738db8;stop-opacity:1"
         offset="1"
         id="stop823" />
    </linearGradient>
    <linearGradient
       inkscape:collect="always"
       xlink:href="#linearGradient825"
       id="linearGradient827"
       x1="1.3016944"
       y1="1.6271178"
       x2="16.054235"
       y2="17.464407"
       gradientUnits="userSpaceOnUse" />
    <linearGradient
       inkscape:collect="always"
       xlink:href="#linearGradient835"
       id="linearGradient837"
       x1="4.6644068"
       y1="5.0983052"
       x2="20.338984"
       y2="21.206779"
       gradientUnits="userSpaceOnUse" />
  </defs>
  <sodipodi:namedview
     pagecolor="#ffffff"
     bordercolor="#666666"
     borderopacity="1"
     objecttolerance="10"
     gridtolerance="10"
     guidetolerance="10"
     inkscape:pageopacity="0"
     inkscape:pageshadow="2"
     inkscape:window-width="1920"
     inkscape:window-height="1027"
     id="namedview4"
     showgrid="false"
     inkscape:zoom="13.037281"
     inkscape:cx="11.898069"
     inkscape:cy="15.452744"
     inkscape:window-x="0"
     inkscape:window-y="30"
     inkscape:window-maximized="1"
     inkscape:current-layer="svg2" />
  <rect
     style="opacity:1;fill:url(#linearGradient827);fill-opacity:1;stroke:none;stroke-width:0.1;stroke-linecap:square;stroke-linejoin:miter;stroke-miterlimit:4;stroke-dasharray:none;stroke-dashoffset:0;stroke-opacity:1;paint-order:fill markers stroke"
     id="rect819"
     width="23.972881"
     height="23.972881"
     x="0.75932145"
     y="0.8677966" />
  <path
     style="opacity:1;fill:url(#linearGradient837);fill-opacity:1;stroke:none;stroke-width:0.1;stroke-linecap:square;stroke-linejoin:miter;stroke-miterlimit:4;stroke-dasharray:none;stroke-dashoffset:0;stroke-opacity:1;paint-order:fill markers stroke"
     d="M 2.60339,2.7661018 H 22.671187 V 22.833899 H 2.60339 Z"
     id="rect829" />
  <path
     style="opacity:1;fill:#000000;fill-opacity:0.26373628;stroke:none;stroke-width:0.1;stroke-linecap:square;stroke-linejoin:miter;stroke-miterlimit:4;stroke-dasharray:none;stroke-dashoffset:0;stroke-opacity:1;paint-order:fill markers stroke"
     d="M 2.6035156 2.765625 L 2.6035156 22.833984 L 22.671875 22.833984 L 22.671875 2.765625 L 2.6035156 2.765625 z M 3.0097656 3.1738281 L 22.263672 3.1738281 L 22.263672 22.427734 L 3.0097656 22.427734 L 3.0097656 3.1738281 z "
     id="rect839" />
  <g
     aria-label="Lr"
     transform="scale(0.96271863,1.0387251)"
     style="font-style:normal;font-variant:normal;font-weight:600;font-stretch:normal;font-size:10.36268711px;line-height:125%;font-family:'Source Sans Pro';-inkscape-font-specification:'Source Sans Pro Semi-Bold';letter-spacing:0px;word-spacing:0px;fill:#8599b9;fill-opacity:1;stroke:none;stroke-width:0.25906721px;stroke-linecap:butt;stroke-linejoin:miter;stroke-opacity:1"
     id="text846">
    <path
       d="M 9.7062887,15.775281 H 13.727011 V 14.759738 H 10.90836 V 8.9980836 H 9.7062887 Z"
       style="fill:#8599b9;fill-opacity:1;stroke-width:0.25906721px"
       id="path1232" />
    <path
       d="m 14.804878,15.775281 h 1.191709 v -3.108806 c 0.31088,-0.766839 0.797926,-1.046632 1.202071,-1.046632 0.217617,0 0.352332,0.03109 0.528497,0.0829 l 0.207254,-1.036269 c -0.15544,-0.07254 -0.321243,-0.103627 -0.58031,-0.103627 -0.53886,0 -1.07772,0.362694 -1.440414,1.025906 h -0.04145 l -0.0829,-0.901553 h -0.984455 z"
       style="fill:#8599b9;fill-opacity:1;stroke-width:0.25906721px"
       id="path1234" />
  </g>
</svg>

<svg width="25.6" height="25.6" version="1.1" viewBox="0 0 25.6 25.6" xmlns="http://www.w3.org/2000/svg">
<defs>
<linearGradient id="linearGradient827" x1="1.3017" x2="16.054" y1="1.6271" y2="17.464" gradientUnits="userSpaceOnUse"/>
<linearGradient id="linearGradient837" x1="4.6644" x2="20.339" y1="5.0983" y2="21.207" gradientUnits="userSpaceOnUse"/>
</defs>
<rect x=".75932" y=".8678" width="23.973" height="23.973" fill="url(#linearGradient827)" style="paint-order:fill markers stroke"/>
<path d="m2.6034 2.7661h20.068v20.068h-20.068z" fill="url(#linearGradient837)" style="paint-order:fill markers stroke"/>
<path d="m2.6035 2.7656v20.068h20.068v-20.068h-20.068zm0.40625 0.4082h19.254v19.254h-19.254v-19.254z" fill-opacity=".26374" style="paint-order:fill markers stroke"/>
<g transform="scale(.96272 1.0387)" fill="#8599b9" stroke-width=".25907px" aria-label="Lr">
<path d="m9.7063 15.775h4.0207v-1.0155h-2.8187v-5.7617h-1.2021z"/>
<path d="m14.805 15.775h1.1917v-3.1088c0.31088-0.76684 0.79793-1.0466 1.2021-1.0466 0.21762 0 0.35233 0.03109 0.5285 0.0829l0.20725-1.0363c-0.15544-0.07254-0.32124-0.10363-0.58031-0.10363-0.53886 0-1.0777 0.36269-1.4404 1.0259h-0.04145l-0.0829-0.90155h-0.98446z"/>
</g>
</svg>
